X:1
T: Miss Susan Campbell Monzies
C:
R:Strathspey
Q: 128
K:D
M:4/4
L:1/16
|:AF3 d3B A3F E3D|E3F G3E F3D B,4|AF3 d3B A3F A3d|e2fg f3e d3c d4|
AF3 d3B A3F E3D|E3F G3E F3D B,4|AF3 d3B A3F A3d|e2fg f3e d3c d4|
d3e d3A BdBA F2A2|B3c d3F GFED B,4|d3e d3A BdBA F2A2|d2ef e3d c3B A4|
d3e d3A BdBA F2A2|B3c d3F GFED B,4|A,3D F3D G3E A3d|e2fg a3e d3c d4:|
